modules/feathericon/icons/notice-push.svg

<?xml version="1.0" encoding="UTF-8"?>
<svg width="24px" height="24px" viewBox="0 0 24 24" version="1.1" xmlns="http://www.w3.org/2000/svg" xmlns:xlink="http://www.w3.org/1999/xlink">
    <!-- Generator: sketchtool 52.2 (67145) - http://www.bohemiancoding.com/sketch -->
    <title>notice-push</title>
    <desc>Created with sketchtool.</desc>
    <defs>
        <path d="M17,11 C14.790861,11 13,9.209139 13,7 C13,4.790861 14.790861,3 17,3 C19.209139,3 21,4.790861 21,7 C21,9.209139 19.209139,11 17,11 Z M5,5 L11,5 L11,7 L5,7 L5,19 L17,19 C17,14.9808238 17,12.9808238 17,13 L19,13 L19,19 C19,20.1045695 18.1045695,21 17,21 L5,21 C3.8954305,21 3,20.1045695 3,19 L3,7 C3,5.8954305 3.8954305,5 5,5 Z" id="path-1"></path>
    </defs>
    <g id="web-app" stroke="none" stroke-width="1" fill="none" fill-rule="evenodd">
        <g id="notice-push">
            <mask id="mask-2" fill="white">
                <use xlink:href="#path-1"></use>
            </mask>
            <use id="Mask" fill="#000000" fill-rule="nonzero" xlink:href="#path-1"></use>
        </g>
    </g>
</svg>

<svg width="24" height="24" viewBox="0 0 24 24" xmlns="http://www.w3.org/2000/svg" xmlns:xlink="http://www.w3.org/1999/xlink"><defs><path d="M17 11a4 4 0 1 1 0-8 4 4 0 0 1 0 8zM5 5h6v2H5v12h12v-6h2v6a2 2 0 0 1-2 2H5a2 2 0 0 1-2-2V7a2 2 0 0 1 2-2z" id="a"/></defs><use fill="#000" fill-rule="nonzero" xlink:href="#a"/></svg>
